static/img/in-field/lists-default-dark.svg

<svg fill="none" height="56" viewBox="0 0 510 56" width="510" xmlns="http://www.w3.org/2000/svg" xmlns:xlink="http://www.w3.org/1999/xlink"><mask id="a" fill="#fff"><path d="m0 0h510v56h-510z" fill="#fff"/></mask><path d="m0 0h510v56h-510z" fill="#464b52"/><path d="m18.1484 37v-15.7051h1.8262v14.0723h6.9717v1.6328zm13.2588-11.7734v11.7734h-1.7832v-11.7734zm-.8701-4.4043c.2936 0 .5443.0966.752.29.2148.1862.3222.4798.3222.8809 0 .3938-.1074.6875-.3222.8808-.2077.1934-.4584.2901-.752.2901-.3079 0-.5657-.0967-.7734-.2901-.2005-.1933-.3008-.487-.3008-.8808 0-.4011.1003-.6947.3008-.8809.2077-.1934.4655-.29.7734-.29zm12.5176 12.955c0 .752-.1898 1.3858-.5693 1.9014-.3724.5085-.9096.8916-1.6114 1.1494-.6946.2578-1.5254.3867-2.4922.3867-.8235 0-1.5361-.0644-2.1377-.1933-.6015-.1289-1.1279-.3115-1.5791-.5479v-1.6435c.4799.2363 1.0528.4511 1.7188.6445s1.3463.29 2.041.29c1.0169 0 1.7546-.1647 2.2129-.4941s.6875-.777.6875-1.3428c0-.3222-.0931-.6051-.2793-.8486-.179-.2506-.4834-.4906-.9131-.7197-.4297-.2364-1.0241-.4942-1.7832-.7735-.7519-.2864-1.4036-.5693-1.9551-.8486-.5442-.2865-.9668-.6338-1.2675-1.042-.2937-.4082-.4405-.9381-.4405-1.5898 0-.9955.4011-1.7582 1.2031-2.2881.8093-.5371 1.8692-.8057 3.1797-.8057.709 0 1.3715.0716 1.9873.2149.6231.136 1.2032.3222 1.7403.5586l-.6016 1.4287c-.487-.2077-1.0062-.3832-1.5576-.5264s-1.1136-.2148-1.6865-.2148c-.8236 0-1.4574.136-1.9014.4082-.4368.2721-.6553.6445-.6553 1.1171 0 .3653.1003.6661.3008.9024.2077.2363.5371.4583.9883.666s1.0456.4512 1.7832.7305c.7376.2721 1.375.555 1.9121.8486.5371.2865.9489.6374 1.2354 1.0527.2936.4082.4404.9346.4404 1.5791zm6.9209 1.9766c.2936 0 .5944-.0251.9023-.0752.308-.0501.5586-.111.752-.1826v1.3857c-.2077.0931-.4977.1719-.8701.2364-.3653.0644-.7233.0966-1.0743.0966-.623 0-1.1888-.1074-1.6972-.3222-.5085-.222-.9167-.5944-1.2246-1.1172-.3008-.5228-.4512-1.2461-.4512-2.1699v-6.9825h-1.6758v-.8701l1.6865-.6982.709-2.5567h1.0742v2.7286h3.4483v1.3964h-3.4483v6.9288c0 .7376.1683 1.289.5049 1.6543.3438.3652.7985.5478 1.3643.5478zm10.5224 1.2461v-15.7051h1.8262v15.7051zm9.9288-1.2461c.2936 0 .5944-.0251.9023-.0752s.5586-.111.752-.1826v1.3857c-.2077.0931-.4978.1719-.8702.2364-.3652.0644-.7233.0966-1.0742.0966-.623 0-1.1888-.1074-1.6972-.3222-.5085-.222-.9167-.5944-1.2247-1.1172-.3007-.5228-.4511-1.2461-.4511-2.1699v-6.9825h-1.6758v-.8701l1.6865-.6982.709-2.5567h1.0742v2.7286h3.4483v1.3964h-3.4483v6.9288c0 .7376.1683 1.289.5049 1.6543.3437.3652.7985.5478 1.3643.5478zm8.8222-10.7422c1.0026 0 1.862.222 2.5781.666.7162.444 1.264 1.0671 1.6436 1.8692.3796.7949.5693 1.7259.5693 2.7929v1.1065h-8.1318c.0215 1.3822.3652 2.4349 1.0313 3.1582.666.7233 1.6041 1.085 2.8144 1.085.7448 0 1.4037-.0681 1.9766-.2041.5729-.1361 1.1673-.3366 1.7832-.6016v1.5683c-.5944.265-1.1852.4584-1.7725.5801-.5801.1218-1.2676.1826-2.0625.1826-1.1315 0-2.1198-.2291-2.9648-.6875-.8379-.4655-1.4896-1.1458-1.9551-2.041s-.6983-1.9909-.6983-3.2871c0-1.2676.2113-2.3633.6338-3.2871.4297-.931 1.0313-1.6471 1.8047-2.1484.7806-.5013 1.6973-.752 2.75-.752zm-.0215 1.461c-.9524 0-1.7115.3115-2.2773.9345-.5658.6231-.9023 1.4932-1.0098 2.6104h6.2305c-.0072-.7018-.1182-1.3177-.333-1.8477-.2077-.5371-.5264-.9525-.9561-1.2461-.4297-.3008-.9811-.4511-1.6543-.4511zm20.8755-1.461c1.296 0 2.273.3402 2.932 1.0205.659.6732.988 1.7582.988 3.2549v7.7129h-1.761v-7.627c0-.9524-.208-1.665-.623-2.1376-.409-.4799-1.017-.7198-1.8265-.7198-1.1387 0-1.9658.3295-2.4814.9883-.5157.6589-.7735 1.6292-.7735 2.9111v6.585h-1.7724v-7.627c0-.6373-.0931-1.1673-.2793-1.5898-.1791-.4225-.4512-.7376-.8164-.9453-.3581-.2149-.8129-.3223-1.3643-.3223-.7806 0-1.4072.1612-1.8799.4834-.4726.3223-.8164.8021-1.0312 1.4395-.2077.6302-.3116 1.4072-.3116 2.331v6.2305h-1.7832v-11.7734h1.4395l.2685 1.665h.0967c.2364-.4082.5336-.752.8916-1.0312.3581-.2793.7591-.4906 1.2032-.6338.444-.1433.9166-.2149 1.4179-.2149.8952 0 1.6436.1683 2.2451.5049.6088.3294 1.0492.8343 1.3213 1.5146h.0967c.3867-.6803.9167-1.1852 1.5898-1.5146.6732-.3366 1.4109-.5049 2.2134-.5049z" fill="#fff"/><path d="m510 55h-510v2h510z" fill="#7d808d" mask="url(#a)"/></svg>

<svg width="510" height="56" viewBox="0 0 510 56" fill="none" xmlns="http://www.w3.org/2000/svg"><mask id="path-1-inside-1_7345_83155" fill="#fff"><path d="M0 0H510V56H0V0Z"/></mask><path d="M0 0H510V56H0V0Z" fill="#464B52"/><path d="M18.1484 37V21.2949H19.9746V35.3672H26.9463V37H18.1484ZM31.4072 25.2266V37H29.624V25.2266H31.4072ZM30.5371 20.8223C30.8307 20.8223 31.0814 20.9189 31.2891 21.1123C31.5039 21.2985 31.6113 21.5921 31.6113 21.9932C31.6113 22.387 31.5039 22.6807 31.2891 22.874C31.0814 23.0674 30.8307 23.1641 30.5371 23.1641C30.2292 23.1641 29.9714 23.0674 29.7637 22.874C29.5632 22.6807 29.4629 22.387 29.4629 21.9932C29.4629 21.5921 29.5632 21.2985 29.7637 21.1123C29.9714 20.9189 30.2292 20.8223 30.5371 20.8223ZM43.0547 33.7773C43.0547 34.5293 42.8649 35.1631 42.4854 35.6787C42.113 36.1872 41.5758 36.5703 40.874 36.8281C40.1794 37.0859 39.3486 37.2148 38.3818 37.2148C37.5583 37.2148 36.8457 37.1504 36.2441 37.0215C35.6426 36.8926 35.1162 36.71 34.665 36.4736V34.8301C35.1449 35.0664 35.7178 35.2812 36.3838 35.4746C37.0498 35.668 37.7301 35.7646 38.4248 35.7646C39.4417 35.7646 40.1794 35.5999 40.6377 35.2705C41.096 34.9411 41.3252 34.4935 41.3252 33.9277C41.3252 33.6055 41.2321 33.3226 41.0459 33.0791C40.8669 32.8285 40.5625 32.5885 40.1328 32.3594C39.7031 32.123 39.1087 31.8652 38.3496 31.5859C37.5977 31.2995 36.946 31.0166 36.3945 30.7373C35.8503 30.4508 35.4277 30.1035 35.127 29.6953C34.8333 29.2871 34.6865 28.7572 34.6865 28.1055C34.6865 27.11 35.0876 26.3473 35.8896 25.8174C36.6989 25.2803 37.7588 25.0117 39.0693 25.0117C39.7783 25.0117 40.4408 25.0833 41.0566 25.2266C41.6797 25.3626 42.2598 25.5488 42.7969 25.7852L42.1953 27.2139C41.7083 27.0062 41.1891 26.8307 40.6377 26.6875C40.0863 26.5443 39.5241 26.4727 38.9512 26.4727C38.1276 26.4727 37.4938 26.6087 37.0498 26.8809C36.613 27.153 36.3945 27.5254 36.3945 27.998C36.3945 28.3633 36.4948 28.6641 36.6953 28.9004C36.903 29.1367 37.2324 29.3587 37.6836 29.5664C38.1348 29.7741 38.7292 30.0176 39.4668 30.2969C40.2044 30.569 40.8418 30.8519 41.3789 31.1455C41.916 31.432 42.3278 31.7829 42.6143 32.1982C42.9079 32.6064 43.0547 33.1328 43.0547 33.7773ZM49.9756 35.7539C50.2692 35.7539 50.57 35.7288 50.8779 35.6787C51.1859 35.6286 51.4365 35.5677 51.6299 35.4961V36.8818C51.4222 36.9749 51.1322 37.0537 50.7598 37.1182C50.3945 37.1826 50.0365 37.2148 49.6855 37.2148C49.0625 37.2148 48.4967 37.1074 47.9883 36.8926C47.4798 36.6706 47.0716 36.2982 46.7637 35.7754C46.4629 35.2526 46.3125 34.5293 46.3125 33.6055V26.623H44.6367V25.7529L46.3232 25.0547L47.0322 22.498H48.1064V25.2266H51.5547V26.623H48.1064V33.5518C48.1064 34.2894 48.2747 34.8408 48.6113 35.2061C48.9551 35.5713 49.4098 35.7539 49.9756 35.7539ZM60.498 37V21.2949H62.3242V37H60.498ZM70.4268 35.7539C70.7204 35.7539 71.0212 35.7288 71.3291 35.6787C71.637 35.6286 71.8877 35.5677 72.0811 35.4961V36.8818C71.8734 36.9749 71.5833 37.0537 71.2109 37.1182C70.8457 37.1826 70.4876 37.2148 70.1367 37.2148C69.5137 37.2148 68.9479 37.1074 68.4395 36.8926C67.931 36.6706 67.5228 36.2982 67.2148 35.7754C66.9141 35.2526 66.7637 34.5293 66.7637 33.6055V26.623H65.0879V25.7529L66.7744 25.0547L67.4834 22.498H68.5576V25.2266H72.0059V26.623H68.5576V33.5518C68.5576 34.2894 68.7259 34.8408 69.0625 35.2061C69.4062 35.5713 69.861 35.7539 70.4268 35.7539ZM79.249 25.0117C80.2516 25.0117 81.111 25.2337 81.8271 25.6777C82.5433 26.1217 83.0911 26.7448 83.4707 27.5469C83.8503 28.3418 84.04 29.2728 84.04 30.3398V31.4463H75.9082C75.9297 32.8285 76.2734 33.8812 76.9395 34.6045C77.6055 35.3278 78.5436 35.6895 79.7539 35.6895C80.4987 35.6895 81.1576 35.6214 81.7305 35.4854C82.3034 35.3493 82.8978 35.1488 83.5137 34.8838V36.4521C82.9193 36.7171 82.3285 36.9105 81.7412 37.0322C81.1611 37.154 80.4736 37.2148 79.6787 37.2148C78.5472 37.2148 77.5589 36.9857 76.7139 36.5273C75.876 36.0618 75.2243 35.3815 74.7588 34.4863C74.2933 33.5911 74.0605 32.4954 74.0605 31.1992C74.0605 29.9316 74.2718 28.8359 74.6943 27.9121C75.124 26.9811 75.7256 26.265 76.499 25.7637C77.2796 25.2624 78.1963 25.0117 79.249 25.0117ZM79.2275 26.4727C78.2751 26.4727 77.516 26.7842 76.9502 27.4072C76.3844 28.0303 76.0479 28.9004 75.9404 30.0176H82.1709C82.1637 29.3158 82.0527 28.6999 81.8379 28.1699C81.6302 27.6328 81.3115 27.2174 80.8818 26.9238C80.4521 26.623 79.9007 26.4727 79.2275 26.4727ZM100.103 25.0117C101.399 25.0117 102.376 25.3519 103.035 26.0322C103.694 26.7054 104.023 27.7904 104.023 29.2871V37H102.262V29.373C102.262 28.4206 102.054 27.708 101.639 27.2354C101.23 26.7555 100.622 26.5156 99.8125 26.5156C98.6738 26.5156 97.8467 26.8451 97.3311 27.5039C96.8154 28.1628 96.5576 29.1331 96.5576 30.415V37H94.7852V29.373C94.7852 28.7357 94.6921 28.2057 94.5059 27.7832C94.3268 27.3607 94.0547 27.0456 93.6895 26.8379C93.3314 26.623 92.8766 26.5156 92.3252 26.5156C91.5446 26.5156 90.918 26.6768 90.4453 26.999C89.9727 27.3213 89.6289 27.8011 89.4141 28.4385C89.2064 29.0687 89.1025 29.8457 89.1025 30.7695V37H87.3193V25.2266H88.7588L89.0273 26.8916H89.124C89.3604 26.4834 89.6576 26.1396 90.0156 25.8604C90.3737 25.5811 90.7747 25.3698 91.2188 25.2266C91.6628 25.0833 92.1354 25.0117 92.6367 25.0117C93.5319 25.0117 94.2803 25.18 94.8818 25.5166C95.4906 25.846 95.931 26.3509 96.2031 27.0312H96.2998C96.6865 26.3509 97.2165 25.846 97.8896 25.5166C98.5628 25.18 99.3005 25.0117 100.103 25.0117Z" fill="#fff"/><path d="M510 55H0V57H510V55Z" fill="#7D808D" mask="url(#path-1-inside-1_7345_83155)"/></svg>
